img/content/csv.svg

<svg width="47" height="53" viewBox="0 0 47 53" fill="none" xmlns="http://www.w3.org/2000/svg">
<path d="M44.0258 18.9597H42.7512V12.8182C42.7501 12.7791 42.7464 12.7402 42.7399 12.7017C42.7417 12.455 42.6535 12.2161 42.4918 12.0296L32.2608 0.356737L32.2533 0.349227C32.192 0.283125 32.1225 0.225081 32.0465 0.176491L31.9788 0.135184C31.9138 0.0990936 31.8451 0.0701355 31.7739 0.0488159L31.7175 0.0300407C31.6394 0.010591 31.5592 0.000506586 31.4787 0H6.32996C5.18128 0 4.2488 0.933151 4.2488 2.07847V18.9578H2.97416C1.33104 18.9578 0 20.2871 0 21.9281V37.3768C0 39.0159 1.33292 40.3471 2.97416 40.3471H4.2488V50.9215C4.2488 52.0669 5.18128 53 6.32996 53H40.67C41.8168 53 42.7512 52.0669 42.7512 50.9215V40.3471H44.0258C45.6671 40.3471 47 39.0177 47 37.3768V21.9281C47 20.289 45.669 18.9597 44.0258 18.9597ZM6.32996 2.07847H30.4372V12.713C30.4372 13.2876 30.9034 13.7513 31.4787 13.7513H40.6719V18.9578H6.32996V2.07847ZM21.9001 30.5574C19.3734 29.6562 17.7058 28.2593 17.7058 26.0531C17.7058 23.464 19.8942 21.5057 23.4568 21.5057C25.1939 21.5057 26.4328 21.8436 27.3352 22.2698L26.5682 25.0167C25.5851 24.5385 24.5051 24.2925 23.4116 24.2976C21.9227 24.2976 21.2008 24.9942 21.2008 25.7602C21.2008 26.7291 22.0336 27.1553 24.0189 27.8988C26.7035 28.8901 27.9424 30.2852 27.9424 32.4256C27.9424 34.9716 26.0042 37.1327 21.8324 37.1327C20.0953 37.1327 18.3826 36.6595 17.5254 36.1864L18.2247 33.3719C19.4053 33.9739 20.7082 34.2976 22.0336 34.3182C23.6128 34.3182 24.4475 33.6629 24.4475 32.6734C24.4475 31.7272 23.7275 31.1883 21.9001 30.5574ZM3.99124 29.521C3.99124 24.3633 7.6892 21.5038 12.2877 21.5038C14.0699 21.5038 15.4216 21.8624 16.0308 22.1572L15.3088 24.8815C14.3956 24.4986 13.4134 24.3069 12.423 24.3183C9.71772 24.3183 7.59896 25.9611 7.59896 29.3389C7.59896 32.3561 9.40188 34.2713 12.4456 34.2713C13.5059 34.2713 14.6339 34.0704 15.3314 33.7756L15.8296 36.4774C15.2205 36.7684 13.7766 37.1308 11.9512 37.1308C6.69656 37.1327 3.99124 33.845 3.99124 29.521ZM40.67 50.362H6.32996V40.3489H40.67V50.362ZM37.8914 36.9074H33.8776L29.0084 21.7291H32.774L34.6221 28.1485C35.1391 29.9716 35.6128 31.684 35.9738 33.5747H36.0415C36.4259 31.7704 36.8844 29.9827 37.4158 28.2161L39.3559 21.731H43.0069L37.8914 36.9074Z" fill="#ED4C5C"/>
</svg>

<svg width="47" height="53" viewBox="0 0 47 53" xmlns="http://www.w3.org/2000/svg" fill="none"><path d="M44.026 18.96h-1.275v-6.142l-.011-.116c.002-.247-.086-.486-.248-.672l-10.231-11.673-.008-.008-.207-.173-.068-.041-.205-.086-.056-.019-.239-.03h-25.149c-1.149 0-2.081.933-2.081 2.078v16.879h-1.275c-1.643 0-2.974 1.329-2.974 2.97v15.449c0 1.639 1.333 2.97 2.974 2.97h1.275v10.574c0 1.145.932 2.078 2.081 2.078h34.34c1.147 0 2.081-.933 2.081-2.078v-10.574h1.275c1.641 0 2.974-1.329 2.974-2.97v-15.449c0-1.639-1.331-2.968-2.974-2.968zm-37.696-16.881h24.107v10.635c0 .575.466 1.038 1.041 1.038h9.193v5.206h-34.342v-16.879zm15.57 28.479c-2.527-.901-4.194-2.298-4.194-4.504 0-2.589 2.188-4.547 5.751-4.547 1.737 0 2.976.338 3.878.764l-.767 2.747c-.983-.478-2.063-.724-3.157-.719-1.489 0-2.211.697-2.211 1.463 0 .969.833 1.395 2.818 2.139 2.685.991 3.924 2.386 3.924 4.527 0 2.546-1.938 4.707-6.11 4.707-1.737 0-3.45-.473-4.307-.946l.699-2.815c1.181.602 2.484.926 3.809.946 1.579 0 2.414-.655 2.414-1.645 0-.946-.72-1.485-2.547-2.116zm-17.909-1.036c0-5.158 3.698-8.017 8.296-8.017 1.782 0 3.134.359 3.743.653l-.722 2.724c-.913-.383-1.895-.575-2.886-.563-2.705 0-4.824 1.643-4.824 5.021 0 3.017 1.803 4.932 4.847 4.932 1.06 0 2.188-.201 2.886-.496l.498 2.702c-.609.291-2.053.653-3.878.653-5.255.002-7.96-3.286-7.96-7.61zm36.679 20.841h-34.34v-10.013h34.34v10.013zm-2.779-13.455h-4.014l-4.869-15.178h3.766l1.848 6.419c.517 1.823.991 3.536 1.352 5.426h.068c.384-1.804.843-3.592 1.374-5.359l1.94-6.485h3.651l-5.116 15.176z" fill="#ED4C5C"/></svg>
